html/app/assets/img/ui/download.svg

<svg fill="none" height="22" viewBox="0 0 18 22" width="18" xmlns="http://www.w3.org/2000/svg"><path clip-rule="evenodd" d="m10 2.01991c-.1857-.01692-.46085-.01985-.98822-.01985h-3.21178c-.85658 0-1.43887.00078-1.88896.03755-.43842.03582-.66262.10075-.81902.18044-.37632.19175-.68229.49771-.87403.87403-.07969.1564-.14462.38061-.18044.81902-.03677.45009-.03755 1.03238-.03755 1.88896v10.40004c0 .8565.00078 1.4388.03755 1.8889.03582.4384.10075.6626.18044.819.19174.3764.49771.6823.87403.8741.1564.0797.3806.1446.81902.1804.45009.0368 1.03238.0376 1.88896.0376h6.4c.8566 0 1.4389-.0008 1.889-.0376.4384-.0358.6626-.1007.819-.1804.3763-.1918.6823-.4977.874-.8741.0797-.1564.1446-.3806.1804-.819.0368-.4501.0376-1.0324.0376-1.8889v-7.21181c0-.5273-.0029-.80246-.0198-.98816l-3.4121.00001c-.2524.00003-.4982.00006-.7063-.01695-.2286-.01868-.4984-.06275-.7698-.20104-.3763-.19175-.6823-.49771-.874-.87403-.1383-.27143-.1824-.54116-.2011-.76976-.01696-.20816-.01693-.45396-.0169-.70634zm1.3936-1.669881c-.2259-.10126-.461-.181485-.7025-.239446-.4627-.11108259-.94245-.11085419-1.57744-.11055211-.03352.00001597-.06748.00003219-.10188.00003219l-3.25308-.00000048c-.80497-.00001276-1.46933-.00002325-2.01053.0441941-.56209.0459252-1.0788.1444893-1.56413.3917803-.75265.383493-1.364572.995413-1.748065 1.748063-.247291.48534-.3458553 1.00204-.3917805 1.56414-.04421731.54119-.04420682 1.20555-.04419407 2.01052v10.48264c-.00001275.8049-.00002324 1.4693.04419407 2.0105.0459252.5621.1444895 1.0788.3917805 1.5641.383493.7527.995415 1.3646 1.748065 1.7481.48533.2473 1.00204.3458 1.56413.3918.54119.0442 1.20555.0442 2.01051.0442h6.48262c.805 0 1.4693 0 2.0105-.0442.5621-.046 1.0788-.1445 1.5642-.3918.7526-.3835 1.3645-.9954 1.748-1.7481.2473-.4853.3459-1.002.3918-1.5641.0442-.5412.0442-1.2056.0442-2.0105v-7.25311c0-.0344 0-.06835 0-.10187.0003-.635.0006-1.1148-.1105-1.5775-.0578-.24073-.1377-.4752-.2386-.70049-.0062-.01468-.0128-.02918-.0198-.04349-.0653-.14139-.1389-.27905-.2205-.41223-.2487-.40573-.5881-.74483-1.0373-1.19364-.0237-.02368-.0478-.04768-.0721-.072l-3.1882-3.18823c-.0243-.02432-.0483-.04834-.072-.07206-.4488-.44922-.7879-.788651-1.1936-1.037278-.1338-.081946-.272-.155837-.414-.221363-.0131-.006317-.0264-.012356-.0398-.01811zm.6064 3.064251v1.98586c0 .29652.0008.45878.0103.57536.0004.00464.0008.00904.0011.01319.0042.00038.0086.00076.0132.00114.1166.00953.2789.0103.5754.0103h1.9859z" fill="#222" fill-rule="evenodd"/></svg>

<svg width="18" height="22" viewBox="0 0 18 22" fill="none" xmlns="http://www.w3.org/2000/svg">
<path fill-rule="evenodd" clip-rule="evenodd" d="M10 2.01991C9.8143 2.00299 9.53915 2.00006 9.01178 2.00006H5.8C4.94342 2.00006 4.36113 2.00084 3.91104 2.03761C3.47262 2.07343 3.24842 2.13836 3.09202 2.21805C2.7157 2.4098 2.40973 2.71576 2.21799 3.09208C2.1383 3.24848 2.07337 3.47269 2.03755 3.9111C2.00078 4.36119 2 4.94348 2 5.80006V16.2001C2 17.0566 2.00078 17.6389 2.03755 18.089C2.07337 18.5274 2.1383 18.7516 2.21799 18.908C2.40973 19.2844 2.7157 19.5903 3.09202 19.7821C3.24842 19.8618 3.47262 19.9267 3.91104 19.9625C4.36113 19.9993 4.94342 20.0001 5.8 20.0001H12.2C13.0566 20.0001 13.6389 19.9993 14.089 19.9625C14.5274 19.9267 14.7516 19.8618 14.908 19.7821C15.2843 19.5903 15.5903 19.2844 15.782 18.908C15.8617 18.7516 15.9266 18.5274 15.9624 18.089C15.9992 17.6389 16 17.0566 16 16.2001V8.98829C16 8.46099 15.9971 8.18583 15.9802 8.00013L12.5681 8.00014C12.3157 8.00017 12.0699 8.0002 11.8618 7.98319C11.6332 7.96451 11.3634 7.92044 11.092 7.78215C10.7157 7.5904 10.4097 7.28444 10.218 6.90812C10.0797 6.63669 10.0356 6.36696 10.0169 6.13836C9.99994 5.9302 9.99997 5.6844 10 5.43202L10 2.01991ZM11.3936 0.350029C11.1677 0.248769 10.9326 0.168544 10.6911 0.110583C10.2284 -0.000499591 9.74865 -0.000271186 9.11366 3.08906e-05C9.08014 4.68646e-05 9.04618 6.30771e-05 9.01178 6.30771e-05L5.7587 6.26003e-05C4.95373 4.98449e-05 4.28937 3.9354e-05 3.74817 0.0442567C3.18608 0.0901819 2.66937 0.188746 2.18404 0.436037C1.43139 0.81953 0.819468 1.43145 0.435975 2.1841C0.188684 2.66944 0.0901197 3.18614 0.0441945 3.74824C-2.28137e-05 4.28943 -1.23241e-05 4.95379 4.31292e-07 5.75876V16.2414C-1.23241e-05 17.0463 -2.28137e-05 17.7107 0.0441945 18.2519C0.0901197 18.814 0.188684 19.3307 0.435975 19.816C0.819468 20.5687 1.43139 21.1806 2.18404 21.5641C2.66937 21.8114 3.18608 21.9099 3.74817 21.9559C4.28936 22.0001 4.95372 22.0001 5.75868 22.0001H12.2413C13.0463 22.0001 13.7106 22.0001 14.2518 21.9559C14.8139 21.9099 15.3306 21.8114 15.816 21.5641C16.5686 21.1806 17.1805 20.5687 17.564 19.816C17.8113 19.3307 17.9099 18.814 17.9558 18.2519C18 17.7107 18 17.0463 18 16.2414V8.98829C18 8.95389 18 8.91994 18 8.88642C18.0003 8.25142 18.0006 7.77162 17.8895 7.30892C17.8317 7.06819 17.7518 6.83372 17.6509 6.60843C17.6447 6.59375 17.6381 6.57925 17.6311 6.56494C17.5658 6.42355 17.4922 6.28589 17.4106 6.15271C17.1619 5.74698 16.8225 5.40788 16.3733 4.95907C16.3496 4.93539 16.3255 4.91139 16.3012 4.88707L13.113 1.69884C13.0887 1.67452 13.0647 1.6505 13.041 1.62678C12.5922 1.17756 12.2531 0.838129 11.8474 0.589502C11.7136 0.507556 11.5754 0.433665 11.4334 0.368139C11.4203 0.361822 11.407 0.355783 11.3936 0.350029ZM12 3.41428V5.40014C12 5.69666 12.0008 5.85892 12.0103 5.9755C12.0107 5.98014 12.0111 5.98454 12.0114 5.98869C12.0156 5.98907 12.02 5.98945 12.0246 5.98983C12.1412 5.99936 12.3035 6.00013 12.6 6.00013H14.5859L12 3.41428Z" fill="#222222"/>
</svg>
